X:1365
T:Aguinaldo
C:anon.
O:Venezuela
Z:Transcribed by Frank Nordberg - http://www.musicaviva.com
F:http://abc.musicaviva.com/tunes/venezuela/aguinaldo.abc
M:5/8
L:1/8
Q:1/8=300
K:D
"D"A,D2DD|"A"E3E2|"A7"FG2FE|"D"A4 z|
"D7"AF2GA|"G"B3B2|"A7"GE2FG|"D"A3A2|
"D"FD2EF|"G"G3G2|"A7"FE2AC|"D"D4 "^Fine"z:|
|:"D"Ad2AF|"G"G3B2|"A7"GB2GE|"D"F3A2|
"D7"FA2FD|"Em7"E3G2|"A7"FE2AC|"D"D3 "^D.C. al fine"z2:|
W:
W:
W:  From Musica Viva - http://www.musicaviva.com
W:  the Internet center for free sheet music downloads.
